static/img/kroki/830ca81d10c98e7eb3a6e122cf35f685.svg

<?xml version="1.0" encoding="us-ascii" standalone="no"?><svg xmlns="http://www.w3.org/2000/svg" xmlns:xlink="http://www.w3.org/1999/xlink" contentStyleType="text/css" height="252px" preserveAspectRatio="none" style="width:375px;height:252px;" version="1.1" viewBox="0 0 375 252" width="375px" zoomAndPan="magnify"><defs/><g><!--class aws_bedrock_evaluation_job--><g id="elem_aws_bedrock_evaluation_job"><rect codeLine="23" fill="#3D176E" height="39.7891" id="aws_bedrock_evaluation_job" rx="2.5" ry="2.5" style="stroke:#000D19;stroke-width:0.5;" width="281" x="44.5" y="106.79"/><ellipse cx="59.5" cy="126.6845" fill="#ADD1B2" rx="11" ry="11" style="stroke:#181818;stroke-width:1.0;"/><path d="M62.4688,132.3252 Q61.8906,132.622 61.25,132.7627 Q60.6094,132.9189 59.9063,132.9189 Q57.4063,132.9189 56.0781,131.2783 Q54.7656,129.622 54.7656,126.497 Q54.7656,123.372 56.0781,121.7158 Q57.4063,120.0595 59.9063,120.0595 Q60.6094,120.0595 61.25,120.2158 Q61.9063,120.372 62.4688,120.6689 L62.4688,123.3877 Q61.8438,122.8095 61.25,122.5439 Q60.6563,122.2627 60.0313,122.2627 Q58.6875,122.2627 58,123.3408 Q57.3125,124.4033 57.3125,126.497 Q57.3125,128.5908 58,129.6689 Q58.6875,130.7314 60.0313,130.7314 Q60.6563,130.7314 61.25,130.4658 Q61.8438,130.1845 62.4688,129.6064 L62.4688,132.3252 Z " fill="#000000"/><text fill="#D9B8FF" font-family="Helvetica" font-size="17" lengthAdjust="spacing" textLength="239" x="78.5" y="132.5698">aws_bedrock_evaluation_job</text></g><!--class aws_iam_role--><g id="elem_aws_iam_role"><rect codeLine="26" fill="#3D176E" height="39.7891" id="aws_iam_role" rx="2.5" ry="2.5" style="stroke:#000D19;stroke-width:0.5;" width="157" x="106.5" y="7"/><ellipse cx="121.5" cy="26.8945" fill="#ADD1B2" rx="11" ry="11" style="stroke:#181818;stroke-width:1.0;"/><path d="M124.4688,32.5352 Q123.8906,32.832 123.25,32.9727 Q122.6094,33.1289 121.9063,33.1289 Q119.4063,33.1289 118.0781,31.4883 Q116.7656,29.832 116.7656,26.707 Q116.7656,23.582 118.0781,21.9258 Q119.4063,20.2695 121.9063,20.2695 Q122.6094,20.2695 123.25,20.4258 Q123.9063,20.582 124.4688,20.8789 L124.4688,23.5977 Q123.8438,23.0195 123.25,22.7539 Q122.6563,22.4727 122.0313,22.4727 Q120.6875,22.4727 120,23.5508 Q119.3125,24.6133 119.3125,26.707 Q119.3125,28.8008 120,29.8789 Q120.6875,30.9414 122.0313,30.9414 Q122.6563,30.9414 123.25,30.6758 Q123.8438,30.3945 124.4688,29.8164 L124.4688,32.5352 Z " fill="#000000"/><text fill="#D9B8FF" font-family="Helvetica" font-size="17" lengthAdjust="spacing" textLength="115" x="140.5" y="32.7798">aws_iam_role</text></g><!--class aws_kms_key--><g id="elem_aws_kms_key"><rect codeLine="29" fill="#3D176E" height="39.7891" id="aws_kms_key" rx="2.5" ry="2.5" style="stroke:#000D19;stroke-width:0.5;" width="158" x="7" y="206.58"/><ellipse cx="22" cy="226.4745" fill="#ADD1B2" rx="11" ry="11" style="stroke:#181818;stroke-width:1.0;"/><path d="M24.9688,232.1152 Q24.3906,232.412 23.75,232.5527 Q23.1094,232.7089 22.4063,232.7089 Q19.9063,232.7089 18.5781,231.0683 Q17.2656,229.412 17.2656,226.287 Q17.2656,223.162 18.5781,221.5058 Q19.9063,219.8495 22.4063,219.8495 Q23.1094,219.8495 23.75,220.0058 Q24.4063,220.162 24.9688,220.4589 L24.9688,223.1777 Q24.3438,222.5995 23.75,222.3339 Q23.1563,222.0527 22.5313,222.0527 Q21.1875,222.0527 20.5,223.1308 Q19.8125,224.1933 19.8125,226.287 Q19.8125,228.3808 20.5,229.4589 Q21.1875,230.5214 22.5313,230.5214 Q23.1563,230.5214 23.75,230.2558 Q24.3438,229.9745 24.9688,229.3964 L24.9688,232.1152 Z " fill="#000000"/><text fill="#D9B8FF" font-family="Helvetica" font-size="17" lengthAdjust="spacing" textLength="116" x="41" y="232.3598">aws_kms_key</text></g><!--class aws_s3_bucket--><g id="elem_aws_s3_bucket"><rect codeLine="32" fill="#3D176E" height="39.7891" id="aws_s3_bucket" rx="2.5" ry="2.5" style="stroke:#000D19;stroke-width:0.5;" width="168" x="200" y="206.58"/><ellipse cx="215" cy="226.4745" fill="#ADD1B2" rx="11" ry="11" style="stroke:#181818;stroke-width:1.0;"/><path d="M217.9688,232.1152 Q217.3906,232.412 216.75,232.5527 Q216.1094,232.7089 215.4063,232.7089 Q212.9063,232.7089 211.5781,231.0683 Q210.2656,229.412 210.2656,226.287 Q210.2656,223.162 211.5781,221.5058 Q212.9063,219.8495 215.4063,219.8495 Q216.1094,219.8495 216.75,220.0058 Q217.4063,220.162 217.9688,220.4589 L217.9688,223.1777 Q217.3438,222.5995 216.75,222.3339 Q216.1563,222.0527 215.5313,222.0527 Q214.1875,222.0527 213.5,223.1308 Q212.8125,224.1933 212.8125,226.287 Q212.8125,228.3808 213.5,229.4589 Q214.1875,230.5214 215.5313,230.5214 Q216.1563,230.5214 216.75,230.2558 Q217.3438,229.9745 217.9688,229.3964 L217.9688,232.1152 Z " fill="#000000"/><text fill="#D9B8FF" font-family="Helvetica" font-size="17" lengthAdjust="spacing" textLength="126" x="234" y="232.3598">aws_s3_bucket</text></g><!--link aws_bedrock_evaluation_job to aws_kms_key--><g id="link_aws_bedrock_evaluation_job_aws_kms_key"><path codeLine="35" d="M165.44,147.01 C148.08,164.15 127.1272,184.842 109.7872,201.982 " fill="none" id="aws_bedrock_evaluation_job-to-aws_kms_key" style="stroke:#1A83AF;stroke-width:2.0;"/><polygon fill="#1A83AF" points="105.52,206.2,114.7327,202.7178,109.076,202.685,109.1088,197.0283,105.52,206.2" style="stroke:#1A83AF;stroke-width:2.0;"/></g><!--link aws_bedrock_evaluation_job to aws_s3_bucket--><g id="link_aws_bedrock_evaluation_job_aws_s3_bucket"><path codeLine="36" d="M204.56,147.01 C221.92,164.15 242.8728,184.842 260.2128,201.982 " fill="none" id="aws_bedrock_evaluation_job-to-aws_s3_bucket" style="stroke:#1A83AF;stroke-width:2.0;"/><polygon fill="#1A83AF" points="264.48,206.2,260.8912,197.0283,260.924,202.685,255.2673,202.7178,264.48,206.2" style="stroke:#1A83AF;stroke-width:2.0;"/></g><!--link aws_iam_role to aws_bedrock_evaluation_job--><g id="link_aws_iam_role_aws_bedrock_evaluation_job"><path codeLine="37" d="M185,47.22 C185,64.36 185,83.27 185,100.41 " fill="none" id="aws_iam_role-to-aws_bedrock_evaluation_job" style="stroke:#1A83AF;stroke-width:2.0;"/><polygon fill="#1A83AF" points="185,106.41,189,97.41,185,101.41,181,97.41,185,106.41" style="stroke:#1A83AF;stroke-width:2.0;"/></g><!--SRC=[bP3DRi8m48JlUGfBd96IHctWKYaWeVQ2gj9RLKMRU0rkOXkj7H2j-kw5qYBZyACUV9dvl3Ex2ycHeLgw3LEeIYGRsLhg9H0ebXEPzTWqXbXF211f5feJezrLO0eAsGCsAtIoWf1uMSYgrcWjk_6i4LJrd4oh-Nwy8z1sQw5s7ZLkmDhSEP9bwz0hmuVbG8YG38VsKfvaTzZ1376aNoIEOvuCG-HgrCMz3yHCVY1B_ADDZSDEpKx43tMnvOxmIdOM_VFFTdm2pgMUirjFUzvt8erqfCyMmCrwHmjeh1zZ7H8QjrdYkBCL3WTSP2VXntDmLErEns1jYn8vcQekS0LD2quQNRoRadr6qPT7IL05cGP3lLRRXvjGjcbHjbMDRczSoEc_zf9yaEQJj_wzF_5VVmvnqL7N3dTwNlGD]--></g></svg>

<svg xmlns="http://www.w3.org/2000/svg" width="375" height="252" viewBox="0 0 375 252"><rect width="281" height="39.789" x="44.5" y="106.79" fill="#3D176E" rx="2.5" ry="2.5" style="stroke:#000d19;stroke-width:.5"/><circle cx="59.5" cy="126.684" r="11" fill="#ADD1B2" style="stroke:#181818;stroke-width:1"/><path d="M62.469 132.325q-.578.297-1.219.438-.64.156-1.344.156-2.5 0-3.828-1.64-1.312-1.657-1.312-4.782t1.312-4.781q1.328-1.656 3.828-1.656.703 0 1.344.156.656.156 1.219.453v2.719q-.625-.579-1.219-.844-.594-.281-1.219-.281-1.343 0-2.031 1.078-.687 1.062-.687 3.156t.687 3.172q.688 1.062 2.031 1.062.625 0 1.219-.265.594-.281 1.219-.86z"/><text x="78.5" y="132.57" fill="#D9B8FF" font-family="Helvetica" font-size="17" textLength="239">aws_bedrock_evaluation_job</text><rect width="157" height="39.789" x="106.5" y="7" fill="#3D176E" rx="2.5" ry="2.5" style="stroke:#000d19;stroke-width:.5"/><circle cx="121.5" cy="26.895" r="11" fill="#ADD1B2" style="stroke:#181818;stroke-width:1"/><path d="M124.469 32.535q-.578.297-1.219.438-.64.156-1.344.156-2.5 0-3.828-1.64-1.312-1.657-1.312-4.782t1.312-4.781q1.328-1.656 3.828-1.656.703 0 1.344.156.656.156 1.219.453v2.719q-.625-.578-1.219-.844-.594-.281-1.219-.281-1.344 0-2.031 1.078-.687 1.062-.687 3.156t.687 3.172q.688 1.062 2.031 1.062.625 0 1.219-.265.594-.281 1.219-.86z"/><text x="140.5" y="32.78" fill="#D9B8FF" font-family="Helvetica" font-size="17" textLength="115">aws_iam_role</text><rect width="158" height="39.789" x="7" y="206.58" fill="#3D176E" rx="2.5" ry="2.5" style="stroke:#000d19;stroke-width:.5"/><circle cx="22" cy="226.475" r="11" fill="#ADD1B2" style="stroke:#181818;stroke-width:1"/><path d="M24.969 232.115q-.578.297-1.219.438-.64.156-1.344.156-2.5 0-3.828-1.64-1.312-1.657-1.312-4.782t1.312-4.781q1.328-1.656 3.828-1.656.703 0 1.344.156.656.156 1.219.453v2.719q-.625-.578-1.219-.844-.594-.281-1.219-.281-1.343 0-2.031 1.078-.687 1.062-.687 3.156t.687 3.172q.688 1.062 2.031 1.062.625 0 1.219-.265.594-.281 1.219-.86z"/><text x="41" y="232.36" fill="#D9B8FF" font-family="Helvetica" font-size="17" textLength="116">aws_kms_key</text><rect width="168" height="39.789" x="200" y="206.58" fill="#3D176E" rx="2.5" ry="2.5" style="stroke:#000d19;stroke-width:.5"/><circle cx="215" cy="226.475" r="11" fill="#ADD1B2" style="stroke:#181818;stroke-width:1"/><path d="M217.969 232.115q-.578.297-1.219.438-.64.156-1.344.156-2.5 0-3.828-1.64-1.312-1.657-1.312-4.782t1.312-4.781q1.328-1.656 3.828-1.656.703 0 1.344.156.656.156 1.219.453v2.719q-.625-.578-1.219-.844-.594-.281-1.219-.281-1.344 0-2.031 1.078-.687 1.062-.687 3.156t.687 3.172q.688 1.062 2.031 1.062.625 0 1.219-.265.594-.281 1.219-.86z"/><text x="234" y="232.36" fill="#D9B8FF" font-family="Helvetica" font-size="17" textLength="126">aws_s3_bucket</text><path fill="none" d="M165.44 147.01a145126 145126 0 0 0-55.653 54.972" style="stroke:#1a83af;stroke-width:2"/><path fill="#1A83AF" d="m105.52 206.2 9.213-3.482-5.657-.033.033-5.657z" style="stroke:#1a83af;stroke-width:2"/><path fill="none" d="M204.56 147.01c17.36 17.14 38.313 37.832 55.653 54.972" style="stroke:#1a83af;stroke-width:2"/><path fill="#1A83AF" d="m264.48 206.2-3.589-9.172.033 5.657-5.657.033z" style="stroke:#1a83af;stroke-width:2"/><path fill="none" d="M185 47.22v53.19" style="stroke:#1a83af;stroke-width:2"/><path fill="#1A83AF" d="m185 106.41 4-9-4 4-4-4z" style="stroke:#1a83af;stroke-width:2"/></svg>
